X: 20882
T: Jon Wilson's Awakening
R: jig
M: 6/8
K: Dminor
|:F2F FED|E^DE A,^CE|F2F FED|B3 BGA|
B2B BAG|A^GA F=GA|G^FG E=FG|AA,=B, ^CDE|
F2F FED|E^DE A,^CE|F2F FED|B3 BGA|
B2B BAG|A^GA F=GA|G^FG A,=B,^C|D3[1D2E:|2 FG^G||
|:A2c c=Bc|BAB GAB|A2c c=Bc|d3 d2e|
f2f ^g=gf|a^ga ^fdc|=B^g=g fde|fef e^cA|
fef fed|e^de A^ce|eff fed|b3 bga|
b2b bag|a^ga f=ga|g^fg A=B^c|d3[1c=B_B:|2 D2E||

